icons/speech-bubble-arrow-right-outline.svg

<svg xmlns="http://www.w3.org/2000/svg" width="24" height="24" viewBox="0 0 24 24">
  <path d="M15,3 C19.5522847,3 23,6.44771525 23,11 C23,15.5522847 19.5522847,19 15,19 L15,19 L14.492,19 L14.4215793,19.0906275 C13.7103901,19.9663638 12.948642,20.6393906 11.8907103,21.256749 L11.8907103,21.256749 L11.5946555,21.4238497 L11.2369286,21.6140163 L10.9086251,21.7821926 C9.57755795,22.4597178 8,21.4937799 8,20 L8,20 L8,19 C4.27285013,19 1,15.3634999 1,11 C1,6.5377729 4.49099359,3 9,3 L9,3 Z M15,5 L9,5 C5.60156611,5 3,7.6364271 3,11 C3,14.3031668 5.42714987,17 8,17 L8,17 L9,17 C9.55228475,17 10,17.4477153 10,18 L10,18 L10,19.999 L10.3113445,19.8411503 L10.6455572,19.6634269 C11.7740931,19.0468761 12.4641772,18.4017399 13.194037,17.4080341 C13.3824481,17.1515119 13.6817197,17 14,17 L14,17 L15,17 C18.4477153,17 21,14.4477153 21,11 C21,7.55228475 18.4477153,5 15,5 L15,5 Z M15.767,10.359 L15.7803112,10.374551 L15.7837744,10.3788907 L15.779,10.374 L15.8036654,10.4046934 L15.8036654,10.4046934 C15.8215099,10.4288693 15.8382813,10.453725 15.8539326,10.4793398 L15.8753288,10.5159379 L15.8753288,10.5159379 C15.8862061,10.5357061 15.8966234,10.5561086 15.9063462,10.5769009 L15.9287745,10.628664 L15.9287745,10.628664 C15.9366843,10.6484208 15.9438775,10.6682023 15.9504533,10.6882636 C15.9552713,10.7031487 15.9599023,10.7185367 15.9641549,10.734007 C15.9701664,10.7555635 15.9753602,10.7772539 15.9798348,10.7992059 C15.9832978,10.8166247 15.9863719,10.834051 15.9889822,10.8515331 L15.996002,10.909968 L15.996002,10.909968 C15.99693,10.9208131 15.9976744,10.9308872 15.9982669,10.9409686 L15.9998198,10.980824 C15.9999398,10.9872016 16,10.9935938 16,11 L15.999,11.019 L15.9982669,11.0590314 L15.997,11.075 L15.9889807,11.1489612 L15.9889807,11.1489612 C15.9863719,11.165949 15.9832978,11.1833753 15.9797599,11.2007258 C15.9753602,11.2227461 15.9701664,11.2444365 15.964279,11.2658396 C15.9599023,11.2814633 15.9552713,11.2968513 15.9502619,11.3121425 C15.9438775,11.3317977 15.9366843,11.3515792 15.928896,11.3710585 L15.9063266,11.4232215 L15.9063266,11.4232215 C15.8966234,11.4438914 15.8862061,11.4642939 15.8751242,11.484277 C15.8685012,11.4963944 15.8613931,11.5086131 15.8540045,11.5207088 C15.8382813,11.546275 15.8215099,11.5711307 15.8036865,11.5951593 C15.7992821,11.6012086 15.7948255,11.6070733 15.7902954,11.6128994 C15.7849289,11.6196628 15.7826279,11.6225624 15.7803112,11.625449 L15.7071068,11.7071068 L12.7071068,14.7071068 C12.3165825,15.0976311 11.6834175,15.0976311 11.2928932,14.7071068 C10.9324093,14.3466228 10.9046797,13.7793918 11.2097046,13.3871006 L11.2928932,13.2928932 L12.585,12 L9,12 C8.44771525,12 8,11.5522847 8,11 C8,10.4871642 8.38604019,10.0644928 8.88337887,10.0067277 L9,10 L12.585,10 L11.2928932,8.70710678 C10.9023689,8.31658249 10.9023689,7.68341751 11.2928932,7.29289322 C11.6533772,6.93240926 12.2206082,6.90467972 12.6128994,7.20970461 L12.7071068,7.29289322 L15.7071068,10.2928932 L15.775,10.37 L15.767,10.359 Z"/>
</svg>

<svg xmlns="http://www.w3.org/2000/svg" viewBox="0 0 24 24">
  <path d="M15 3c4.55 0 8 3.45 8 8s-3.45 8-8 8h-.5l-.08.1a8.85 8.85 0 0 1-2.53 2.16l-.3.16-.35.2-.33.16A2 2 0 0 1 8 20v-1c-3.73 0-7-3.64-7-8 0-4.46 3.5-8 8-8zm0 2H9c-3.4 0-6 2.64-6 6 0 3.3 2.43 6 5 6h1a1 1 0 0 1 1 1v2l.31-.16.34-.18a7.16 7.16 0 0 0 2.54-2.25A1 1 0 0 1 14 17h1c3.45 0 6-2.55 6-6s-2.55-6-6-6zm.77 5.36.01.01.02.03.05.08.03.04.03.06.02.05a.99.99 0 0 1 .06.22v.09l.01.04v.09l-.01.08a1.08 1.08 0 0 1-.06.22l-.02.05a1.02 1.02 0 0 1-.13.2l-.07.09-3 3a1 1 0 0 1-1.5-1.32l.08-.1L12.6 12H9a1 1 0 0 1-.12-2h3.71l-1.3-1.3a1 1 0 0 1 1.32-1.49l.1.08 3 3 .06.08v-.01z"/>
</svg>
